;FLAVOR:RepRap
;TIME:1650
;Generated with Cura_SteamEngine 2.3.1
M104 S200
M109 S200
; -- START GCODE --
M800        ; Custom GCODE to fire start print procedure
; -- end of START GCODE --
;LAYER_COUNT:74
;LAYER:0
M107
G1 F1500 E-6.5
G0 F3600 X121.361 Y91.714 Z.2
;TYPE:SKIRT
G1 F1500 E0
G1 F1800 X121.84 Y91.09 E0.02616
G1 X122.206 Y90.679 E0.04447
G1 X122.543 Y90.387 E0.0593
G1 X123.167 Y89.909 E0.08544
G1 X123.628 Y89.607 E0.10377
G1 X124.025 Y89.415 E0.11844
G1 X124.745 Y89.117 E0.14436
G1 X125.268 Y88.944 E0.16268
G1 X125.699 Y88.861 E0.17728
G1 X126.477 Y88.758 E0.20338
G1 X126.976 Y88.725 E0.22001
G1 X170.024 Y88.725 E1.6518
G1 X170.523 Y88.758 E1.66843
G1 X171.301 Y88.861 E1.69453
G1 X171.84 Y88.973 E1.71284
G1 X172.255 Y89.117 E1.72745
G1 X172.975 Y89.415 E1.75337
G1 X173.468 Y89.662 E1.77171
G1 X173.833 Y89.909 E1.78637
G1 X174.457 Y90.387 E1.81251
G1 X174.869 Y90.753 E1.83084
G1 X175.16 Y91.09 E1.84565
G1 X175.639 Y91.714 E1.87181
G1 X175.942 Y92.174 E1.89013
G1 X176.138 Y92.579 E1.9051
G1 X176.435 Y93.299 E1.931
G1 X176.607 Y93.822 E1.94932
G1 X176.689 Y94.252 E1.96388
G1 X176.791 Y95.026 E1.98984
G1 X176.824 Y95.522 E2.00637
G1 X176.824 Y117.475 E2.73653
G1 X176.784 Y118.025 E2.75488
G1 X176.665 Y118.563 E2.7732
G1 X176.469 Y119.078 E2.79153
G1 X176.201 Y119.559 E2.80984
G1 X175.867 Y119.997 E2.82816
G1 X175.472 Y120.381 E2.84649
G1 X175.026 Y120.705 E2.86482
G1 X174.538 Y120.96 E2.88314
G1 X174.018 Y121.143 E2.90147
G1 X173.477 Y121.248 E2.9198
G1 X173.024 Y121.275 E2.93489
G1 X123.976 Y121.275 E4.56624
G1 X123.426 Y121.235 E4.58458
G1 X122.888 Y121.116 E4.6029
G1 X122.373 Y120.92 E4.62123
G1 X121.892 Y120.652 E4.63955
G1 X121.454 Y120.318 E4.65787
G1 X121.07 Y119.923 E4.67619
G1 X120.746 Y119.477 E4.69452
G1 X120.491 Y118.989 E4.71284
G1 X120.308 Y118.469 E4.73117
G1 X120.203 Y117.928 E4.7495
G1 X120.176 Y117.475 E4.7646
G1 X120.178 Y95.509 E5.49519
G1 X120.213 Y94.995 E5.51232
G1 X120.319 Y94.218 E5.5384
G1 X120.433 Y93.679 E5.55673
G1 X120.572 Y93.28 E5.57078
G1 X120.863 Y92.576 E5.59612
G1 X121.11 Y92.084 E5.61443
G1 X121.361 Y91.714 E5.6293
G0 F3600 X121.678 Y91.958
G1 F1800 X122.157 Y91.334 E5.65546
G1 X122.505 Y90.946 E5.6728
G1 X122.786 Y90.705 E5.68511
G1 X123.41 Y90.227 E5.71126
G1 X123.847 Y89.943 E5.72859
G1 X124.178 Y89.784 E5.7408
G1 X124.898 Y89.486 E5.76672
G1 X125.393 Y89.325 E5.78403
G1 X125.752 Y89.257 E5.79619
G1 X126.53 Y89.154 E5.82229
G1 X126.976 Y89.125 E5.83715
G1 X170.024 Y89.125 E7.26894
G1 X170.47 Y89.154 E7.2838
G1 X171.248 Y89.257 E7.3099
G1 X171.758 Y89.365 E7.32724
G1 X172.102 Y89.486 E7.33937
G1 X172.822 Y89.784 E7.36529
G1 X173.287 Y90.02 E7.38263
G1 X173.59 Y90.227 E7.39484
G1 X174.214 Y90.705 E7.42098
G1 X174.602 Y91.053 E7.43832
G1 X174.843 Y91.334 E7.45063
G1 X175.322 Y91.958 E7.47679
G1 X175.607 Y92.394 E7.49412
G1 X175.768 Y92.731 E7.50654
G1 X176.065 Y93.451 E7.53244
G1 X176.226 Y93.947 E7.54979
G1 X176.293 Y94.304 E7.56187
G1 X176.395 Y95.078 E7.58784
G1 X176.424 Y95.522 E7.60263
G1 X176.424 Y117.475 E8.33279
G1 X176.384 Y117.995 E8.35014
G1 X176.265 Y118.502 E8.36746
G1 X176.07 Y118.985 E8.38479
G1 X175.804 Y119.433 E8.40212
G1 X175.472 Y119.835 E8.41946
G1 X175.082 Y120.181 E8.4368
G1 X174.644 Y120.464 E8.45414
G1 X174.169 Y120.677 E8.47146
G1 X173.666 Y120.814 E8.48879
G1 X173.024 Y120.875 E8.51024
G1 X123.976 Y120.875 E10.14159
G1 X123.456 Y120.835 E10.15893
G1 X122.949 Y120.716 E10.17625
G1 X122.466 Y120.521 E10.19358
G1 X122.018 Y120.255 E10.21091
G1 X121.616 Y119.923 E10.22825
G1 X121.27 Y119.533 E10.24559
G1 X120.987 Y119.095 E10.26293
G1 X120.774 Y118.62 E10.28025
G1 X120.637 Y118.117 E10.29759
G1 X120.576 Y117.475 E10.31904
G1 X120.578 Y95.509 E11.04963
G1 X120.609 Y95.049 E11.06496
G1 X120.715 Y94.272 E11.09105
G1 X120.825 Y93.763 E11.10837
G1 X120.942 Y93.433 E11.12001
G1 X121.233 Y92.729 E11.14535
G1 X121.468 Y92.264 E11.16268
G1 X121.678 Y91.958 E11.17502
G0 F3600 X121.995 Y92.201
G1 F1800 X122.474 Y91.577 E11.20118
G1 X122.803 Y91.215 E11.21745
G1 X123.03 Y91.022 E11.22736
G1 X123.654 Y90.544 E11.25351
G1 X124.065 Y90.279 E11.26977
G1 X124.331 Y90.154 E11.27955
G1 X125.051 Y89.856 E11.30547
G1 X125.517 Y89.706 E11.32175
G1 X125.804 Y89.654 E11.33145
G1 X126.582 Y89.551 E11.35755
G1 X126.976 Y89.525 E11.37068
G1 X170.024 Y89.525 E12.80247
G1 X170.418 Y89.551 E12.8156
G1 X171.196 Y89.654 E12.8417
G1 X171.674 Y89.758 E12.85797
G1 X171.949 Y89.856 E12.86768
G1 X172.669 Y90.154 E12.8936
G1 X173.105 Y90.378 E12.9099
G1 X173.346 Y90.544 E12.91964
G1 X173.97 Y91.022 E12.94578
G1 X174.333 Y91.351 E12.96207
G1 X174.526 Y91.577 E12.97196
G1 X175.005 Y92.201 E12.99812
G1 X175.27 Y92.613 E13.01442
G1 X175.398 Y92.884 E13.02438
G1 X175.695 Y93.604 E13.05029
G1 X175.844 Y94.07 E13.06656
G1 X175.896 Y94.356 E13.07623
G1 X175.998 Y95.13 E13.1022
G1 X176.024 Y95.522 E13.11526
G1 X176.024 Y117.475 E13.84542
G1 X175.984 Y117.963 E13.86171
G1 X175.865 Y118.438 E13.87799
G1 X175.671 Y118.887 E13.89426
G1 X175.406 Y119.299 E13.91056
G1 X175.078 Y119.662 E13.92683
G1 X174.695 Y119.967 E13.94311
G1 X174.267 Y120.205 E13.9594
G1 X173.807 Y120.371 E13.97567
G1 X173.326 Y120.46 E13.99193
G1 X173.024 Y120.475 E14.00199
G1 X123.976 Y120.475 E15.63333
G1 X123.488 Y120.435 E15.64962
G1 X123.013 Y120.316 E15.66591
G1 X122.564 Y120.122 E15.68218
G1 X122.152 Y119.857 E15.69847
G1 X121.789 Y119.529 E15.71474
G1 X121.484 Y119.146 E15.73102
G1 X121.246 Y118.718 E15.74731
G1 X121.08 Y118.258 E15.76358
G1 X120.991 Y117.777 E15.77985
G1 X120.976 Y117.475 E15.7899
G1 X120.978 Y95.509 E16.5205
G1 X121.006 Y95.103 E16.53403
G1 X121.112 Y94.326 E16.56012
G1 X121.217 Y93.849 E16.57636
G1 X121.312 Y93.586 E16.58566
G1 X121.603 Y92.882 E16.611
G1 X121.826 Y92.446 E16.62729
G1 X121.995 Y92.201 E16.63718
G0 F3600 X122.313 Y92.445
G1 F1800 X122.792 Y91.821 E16.66335
G1 X123.273 Y91.34 E16.68597
G1 X123.897 Y90.862 E16.71212
G1 X124.484 Y90.524 E16.73465
G1 X125.204 Y90.226 E16.76056
G1 X125.857 Y90.05 E16.78306
G1 X126.635 Y89.947 E16.80916
G1 X126.976 Y89.925 E16.82053
G1 X170.024 Y89.925 E18.25231
G1 X170.365 Y89.947 E18.26367
G1 X171.143 Y90.05 E18.28978
G1 X171.796 Y90.226 E18.31227
G1 X172.516 Y90.524 E18.33819
G1 X173.103 Y90.862 E18.36072
G1 X173.727 Y91.34 E18.38686
G1 X174.208 Y91.821 E18.40948
G1 X174.687 Y92.445 E18.43565
G1 X174.932 Y92.829 E18.4508
G1 X175.029 Y93.037 E18.45843
G1 X175.326 Y93.757 E18.48434
G1 X175.5 Y94.408 E18.50675
G1 X175.602 Y95.182 E18.53271
G1 X175.624 Y95.522 E18.54405
G1 X175.624 Y117.475 E19.27421
G1 X175.584 Y117.929 E19.28936
G1 X175.466 Y118.369 E19.30452
G1 X175.272 Y118.781 E19.31966
G1 X175.009 Y119.154 E19.33484
G1 X174.686 Y119.475 E19.34999
G1 X174.311 Y119.734 E19.36515
G1 X173.897 Y119.924 E19.3803
G1 X173.456 Y120.039 E19.39546
G1 X173.024 Y120.075 E19.40987
G1 X123.976 Y120.075 E21.04122
G1 X123.522 Y120.035 E21.05638
G1 X123.082 Y119.917 E21.07153
G1 X122.67 Y119.723 E21.08667
G1 X122.297 Y119.46 E21.10185
G1 X121.976 Y119.137 E21.117
G1 X121.717 Y118.762 E21.13216
G1 X121.527 Y118.348 E21.14731
G1 X121.412 Y117.907 E21.16247
G1 X121.376 Y117.475 E21.17688
G1 X121.378 Y95.509 E21.90748
G1 X121.402 Y95.158 E21.91918
G1 X121.508 Y94.381 E21.94526
G1 X121.681 Y93.739 E21.96738
G1 X121.972 Y93.035 E21.99271
G1 X122.313 Y92.445 E22.01538
G0 F3600 X122.63 Y92.688
G1 F1800 X123.109 Y92.064 E22.04154
G1 X123.516 Y91.658 E22.06066
G1 X124.14 Y91.18 E22.08681
G1 X124.637 Y90.893 E22.10589
G1 X125.357 Y90.595 E22.13181
G1 X125.909 Y90.447 E22.15082
G1 X126.687 Y90.344 E22.17692
G1 X126.976 Y90.325 E22.18655
G1 X170.024 Y90.325 E23.61834
G1 X170.313 Y90.344 E23.62797
G1 X171.091 Y90.447 E23.65407
G1 X171.643 Y90.595 E23.67308
G1 X172.363 Y90.893 E23.699
G1 X172.86 Y91.18 E23.71809
G1 X173.484 Y91.658 E23.74423
G1 X173.891 Y92.064 E23.76335
G1 X174.37 Y92.688 E23.78951
G1 X174.659 Y93.189 E23.80875
G1 X174.956 Y93.909 E23.83466
G1 X175.103 Y94.461 E23.85366
G1 X175.205 Y95.235 E23.87962
G1 X175.224 Y95.522 E23.88919
G1 X175.224 Y117.475 E24.61935
G1 X175.184 Y117.892 E24.63328
G1 X175.066 Y118.294 E24.64722
G1 X174.873 Y118.666 E24.66115
G1 X174.614 Y118.995 E24.67508
G1 X174.297 Y119.269 E24.68902
G1 X173.934 Y119.478 E24.70295
G1 X173.537 Y119.614 E24.71691
G1 X173.024 Y119.675 E24.73409
G1 X123.976 Y119.675 E26.36543
G1 X123.559 Y119.635 E26.37937
G1 X123.157 Y119.517 E26.3933
G1 X122.785 Y119.324 E26.40724
G1 X122.456 Y119.065 E26.42117
G1 X122.182 Y118.748 E26.4351
G1 X121.973 Y118.385 E26.44903
G1 X121.837 Y117.988 E26.46299
G1 X121.776 Y117.475 E26.48017
G1 X121.778 Y95.509 E27.21077
G1 X121.798 Y95.212 E27.22067
G1 X121.904 Y94.435 E27.24675
G1 X122.051 Y93.892 E27.26546
G1 X122.342 Y93.188 E27.2908
G1 X122.63 Y92.688 E27.30999
G0 F3600 X122.947 Y92.932
G1 F1800 X123.426 Y92.308 E27.33615
G1 X123.759 Y91.975 E27.35181
G1 X124.383 Y91.497 E27.37796
G1 X124.79 Y91.263 E27.39357
G1 X125.51 Y90.965 E27.41949
G1 X125.962 Y90.844 E27.43505
G1 X126.74 Y90.741 E27.46116
G1 X126.976 Y90.725 E27.46902
G1 X170.024 Y90.725 E28.90081
G1 X170.26 Y90.741 E28.90867
G1 X171.038 Y90.844 E28.93477
G1 X171.49 Y90.965 E28.95034
G1 X172.21 Y91.263 E28.97625
G1 X172.617 Y91.497 E28.99187
G1 X173.241 Y91.975 E29.01801
G1 X173.574 Y92.308 E29.03368
G1 X174.053 Y92.932 E29.05984
G1 X174.289 Y93.342 E29.07558
G1 X174.586 Y94.062 E29.10148
G1 X174.707 Y94.513 E29.11701
G1 X174.809 Y95.287 E29.14298
G1 X174.824 Y95.522 E29.15081
G1 X174.824 Y117.475 E29.88097
G1 X174.784 Y117.852 E29.89358
G1 X174.666 Y118.212 E29.90618
G1 X174.476 Y118.539 E29.91876
G1 X174.221 Y118.82 E29.93138
G1 X173.912 Y119.04 E29.94399
G1 X173.565 Y119.192 E29.95659
G1 X173.024 Y119.275 E29.9748
G1 X123.976 Y119.275 E31.60614
G1 X123.599 Y119.235 E31.61875
G1 X123.239 Y119.117 E31.63135
G1 X122.912 Y118.927 E31.64393
G1 X122.631 Y118.672 E31.65655
G1 X122.411 Y118.363 E31.66917
G1 X122.259 Y118.016 E31.68177
G1 X122.176 Y117.475 E31.69997
G1 X122.178 Y95.509 E32.43056
G1 X122.195 Y95.266 E32.43867
G1 X122.301 Y94.489 E32.46475
G1 X122.421 Y94.044 E32.48008
G1 X122.712 Y93.34 E32.50541
G1 X122.947 Y92.932 E32.52107
G0 F3600 X123.264 Y93.176
G1 F1800 X123.743 Y92.552 E32.54724
G1 X124.003 Y92.293 E32.55944
G1 X124.627 Y91.815 E32.58559
G1 X124.943 Y91.632 E32.59773
G1 X125.663 Y91.334 E32.62365
G1 X126.014 Y91.24 E32.63574
G1 X126.792 Y91.137 E32.66184
G1 X126.976 Y91.125 E32.66797
G1 X170.024 Y91.125 E34.09975
G1 X170.208 Y91.137 E34.10589
G1 X170.986 Y91.24 E34.13199
G1 X171.337 Y91.334 E34.14407
G1 X172.057 Y91.632 E34.16999
G1 X172.373 Y91.815 E34.18214
G1 X172.997 Y92.293 E34.20828
G1 X173.257 Y92.552 E34.22049
G1 X173.736 Y93.176 E34.24665
G1 X173.919 Y93.494 E34.25885
G1 X174.216 Y94.214 E34.28476
G1 X174.31 Y94.565 E34.29684
G1 X174.412 Y95.339 E34.32281
G1 X174.424 Y95.522 E34.32891
G1 X174.424 Y117.475 E35.05907
G1 X174.384 Y117.807 E35.07019
G1 X174.267 Y118.119 E35.08127
G1 X174.079 Y118.396 E35.09241
G1 X173.831 Y118.619 E35.1035
G1 X173.537 Y118.778 E35.11462
G1 X173.213 Y118.862 E35.12575
G1 X173.024 Y118.875 E35.13205
G1 X123.976 Y118.875 E36.7634
G1 X123.644 Y118.835 E36.77452
G1 X123.332 Y118.718 E36.7856
G1 X123.055 Y118.53 E36.79674
G1 X122.832 Y118.282 E36.80783
G1 X122.673 Y117.988 E36.81895
G1 X122.589 Y117.664 E36.83008
G1 X122.576 Y117.475 E36.83638
G1 X122.578 Y95.509 E37.56697
G1 X122.591 Y95.32 E37.57327
G1 X122.697 Y94.543 E37.59935
G1 X122.79 Y94.197 E37.61127
G1 X123.081 Y93.493 E37.63661
G1 X123.264 Y93.176 E37.64878
G0 F3600 X123.582 Y93.419
G1 F1800 X124.061 Y92.795 E37.67495
G1 X124.246 Y92.61 E37.68365
G1 X124.87 Y92.132 E37.70979
G1 X125.096 Y92.002 E37.71846
G1 X125.816 Y91.704 E37.74438
G1 X126.067 Y91.637 E37.75302
G1 X126.845 Y91.534 E37.77912
G1 X126.976 Y91.525 E37.78349
G1 X170.024 Y91.525 E39.21527
G1 X170.155 Y91.534 E39.21964
G1 X170.933 Y91.637 E39.24574
G1 X171.184 Y91.704 E39.25438
G1 X171.904 Y92.002 E39.2803
G1 X172.13 Y92.132 E39.28897
G1 X172.754 Y92.61 E39.31512
G1 X172.939 Y92.795 E39.32382
G1 X173.418 Y93.419 E39.34998
G1 X173.549 Y93.647 E39.35873
G1 X173.846 Y94.367 E39.38463
G1 X173.913 Y94.617 E39.39324
G1 X174.015 Y95.391 E39.41921
G1 X174.024 Y95.522 E39.42357
G1 X174.024 Y117.475 E40.15373
G1 X173.984 Y117.754 E40.16311
G1 X173.868 Y118.011 E40.17249
G1 X173.685 Y118.226 E40.18188
G1 X173.449 Y118.38 E40.19125
G1 X173.179 Y118.463 E40.20064
G1 X173.024 Y118.475 E40.20582
G1 X123.976 Y118.475 E41.83716
G1 X123.697 Y118.435 E41.84653
G1 X123.44 Y118.319 E41.85591
G1 X123.225 Y118.136 E41.8653
G1 X123.071 Y117.9 E41.87467
G1 X122.988 Y117.63 E41.88407
G1 X122.976 Y117.475 E41.88924
G1 X122.978 Y95.509 E42.61983
G1 X122.987 Y95.374 E42.62433
G1 X123.093 Y94.597 E42.65042
G1 X123.16 Y94.35 E42.65893
G1 X123.451 Y93.646 E42.68426
G1 X123.582 Y93.419 E42.69298
G0 F3600 X123.899 Y93.663
G1 F1800 X124.378 Y93.039 E42.71915
G1 X124.489 Y92.928 E42.72437
G1 X125.113 Y92.45 E42.75051
G1 X125.249 Y92.372 E42.75572
G1 X125.969 Y92.074 E42.78164
G1 X126.119 Y92.033 E42.78681
G1 X126.897 Y91.93 E42.81292
G1 X126.976 Y91.925 E42.81555
G1 X170.024 Y91.925 E44.24733
G1 X170.103 Y91.93 E44.24996
G1 X170.881 Y92.033 E44.27607
G1 X171.031 Y92.074 E44.28124
G1 X171.751 Y92.372 E44.30716
G1 X171.887 Y92.45 E44.31237
G1 X172.511 Y92.928 E44.33851
G1 X172.622 Y93.039 E44.34374
G1 X173.101 Y93.663 E44.3699
G1 X173.18 Y93.799 E44.37513
G1 X173.477 Y94.519 E44.40103
G1 X173.517 Y94.67 E44.40623
G1 X173.619 Y95.444 E44.4322
G1 X173.624 Y95.522 E44.4348
G1 X173.624 Y117.475 E45.16496
G1 X173.584 Y117.69 E45.17223
G1 X173.471 Y117.876 E45.17947
G1 X173.298 Y118.009 E45.18673
G1 X173.024 Y118.075 E45.1961
G1 X123.976 Y118.075 E46.82744
G1 X123.761 Y118.035 E46.83472
G1 X123.575 Y117.922 E46.84196
G1 X123.442 Y117.749 E46.84921
G1 X123.376 Y117.475 E46.85859
G1 X123.378 Y95.509 E47.58918
G1 X123.384 Y95.428 E47.59188
G1 X123.49 Y94.651 E47.61796
G1 X123.53 Y94.503 E47.62306
G1 X123.821 Y93.799 E47.6484
G1 X123.899 Y93.663 E47.65361
G0 F3600 X124.19 Y93.952
G1 F1800 X124.216 Y93.906 E47.65537
G1 X124.695 Y93.282 E47.68153
G1 X124.732 Y93.245 E47.68328
G1 X125.356 Y92.767 E47.70942
G1 X125.402 Y92.741 E47.71118
G1 X126.122 Y92.443 E47.73709
G1 X126.172 Y92.43 E47.73881
G1 X126.95 Y92.327 E47.76491
G1 X126.976 Y92.325 E47.76578
G1 X170.024 Y92.325 E49.19756
G1 X170.05 Y92.327 E49.19843
G1 X170.828 Y92.43 E49.22453
G1 X170.878 Y92.443 E49.22625
G1 X171.598 Y92.741 E49.25217
G1 X171.644 Y92.767 E49.25393
G1 X172.268 Y93.245 E49.28007
G1 X172.305 Y93.282 E49.28181
G1 X172.784 Y93.906 E49.30797
G1 X172.81 Y93.952 E49.30973
G1 X173.107 Y94.672 E49.33564
G1 X173.12 Y94.722 E49.33736
G1 X173.222 Y95.496 E49.36332
G1 X173.224 Y95.522 E49.36419
G1 X173.224 Y117.475 E50.09435
G1 X173.185 Y117.594 E50.09851
G1 X173.024 Y117.675 E50.10451
G1 X123.976 Y117.675 E51.73585
G1 X123.857 Y117.636 E51.74002
G1 X123.776 Y117.475 E51.74601
G1 X123.778 Y95.509 E52.4766
G1 X123.78 Y95.482 E52.4775
G1 X123.886 Y94.705 E52.50359
G1 X123.899 Y94.656 E52.50527
G1 X124.19 Y93.952 E52.53061
G1 F1500 E46.03061
G0 F3600 X124.935 Y94.347
G0 X125.251 Y94.529
;TYPE:WALL-INNER
G1 F1500 E52.53061
G1 F1800 X125.569 Y94.116 E52.54794
G1 X125.977 Y93.802 E52.56507
G1 X126.461 Y93.602 E52.58249
G1 X127.045 Y93.525 E52.60208
G1 X169.955 Y93.525 E54.02927
G1 X170.539 Y93.602 E54.04886
G1 X171.023 Y93.802 E54.06628
G1 X171.431 Y94.116 E54.0834
G1 X171.749 Y94.529 E54.10074
G1 X171.948 Y95.01 E54.11805
G1 X172.024 Y95.594 E54.13764
G1 X172.024 Y116.475 E54.83215
G1 X125.176 Y116.475 E56.39032
G1 X124.976 Y116.475 E56.39697
G1 X124.976 Y116.275 E56.40128
G1 X124.978 Y95.571 E57.0899
G1 X125.056 Y95.003 E57.10896
G1 X125.251 Y94.529 E57.12601
G0 F3600 X128.732 Y97.641
G1 F1800 X128.201 Y98.193 E57.15149
G1 X127.718 Y98.787 E57.17695
G1 X127.284 Y99.415 E57.20234
G1 X126.902 Y100.078 E57.22779
G1 X126.573 Y100.768 E57.25321
G1 X126.3 Y101.484 E57.2787
G1 X126.088 Y102.219 E57.30414
G1 X125.935 Y102.97 E57.32964
G1 X125.843 Y103.729 E57.35506
G1 X125.813 Y104.493 E57.3805
G1 X125.843 Y105.256 E57.40589
G1 X125.935 Y106.015 E57.43132
G1 X126.088 Y106.766 E57.45681
G1 X126.3 Y107.501 E57.48226
